X:1
T:Spalding, 10.10.12.10
T:Spalding, 10.10.12.10
T:Robert Lowry, 1893
T:Public Domain Courtesy of the Cyber Hymnal™
C:Robert Lowry, 1893
Z:Public Domain
Z:Courtesy of the Cyber Hymnal™
%%score ( 1 2 ) ( 3 4 )
L:1/8
Q:1/4=93
M:2/4
K:Bb
V:1 treble 
V:2 treble 
V:3 bass 
V:4 bass 
V:1
 [DF]2 [EG][DF] | [DB]>[DF] [DF]2 | [EG]2 [EB][EG] | [DF]4 | [FB]2 [EA][DB][Fd]>[Fc] [Fc]2 | %5
 [FA]2 [GB][=EG] | F4 | [DF]2 [DB][DF] | [EG]>[EG] [EG]2 | [=EG]2 [Ec][EG] | [FA]>[FA] [FA]2 | %11
 [FB]2 [Fc][Fd] | [EG]>[EG] [Fc]2 | [FB]2 [EA]>[EA] | [DB]4 |] %15
V:2
 x4 | x4 | x4 | x4 | x8 | x4 | (F2 E2) | x4 | x4 | x4 | x4 | x4 | x4 | x4 | x4 |] %15
V:3
 [B,,B,]2 [B,,B,][B,,B,] | [B,,F,]>[B,,B,] [B,,B,]2 | [E,B,]2 [E,G,][E,B,] | [B,,B,]4 | %4
 [D,B,]2 [C,F,][B,,B,][F,B,]>[F,A,] [F,A,]2 | [C,C]2 [C,C][C,C] | [F,A,]4 | %7
 [B,,B,]2 [B,,F,][B,,B,] | [E,B,]>[E,B,] [E,B,]2 | [C,C]2 [C,G,][C,C] | [F,C]>[F,C] C2 | %11
 [D,B,]2 [C,A,][B,,B,] | [E,B,]>[E,B,] [C,E]2 | [E,D]2 [F,C]>[F,C] | [B,,B,]4 |] %15
V:4
 x4 | x4 | x4 | x4 | x8 | x4 | x4 | x4 | x4 | x4 | x2 (F,E,) | x4 | x4 | x4 | x4 |] %15

